X:1
T:Maple Leaf Rag
T:Maple Leaf Rag
T:Scott Joplin
C:Scott Joplin
%%score 1 2 3
L:1/8
Q:1/4=130
M:2/2
K:Bb
V:1 treble nm="Flute" snm="Fl."
V:2 treble transpose=-2 nm="B♭ Clarinet" snm="B♭ Cl."
V:3 treble transpose=-2 nm="B♭ Clarinet" snm="B♭ Cl."
V:1
!f! z2 |: z B!>!fB d !>!f2 A | !>!fAc!>!f- f4 | z B!>!fB d !>!f2 A | !>!fAc!>!f- f2 z !>!f | %5
 z B^c!>!^f z !>!=f z !>!f | z B^c!>!^f z !>!=f z2 | z4 z B^cb | z4 z!p! b^c'b' | %9
!mf! !>!b2!<(! !>!b2 !>!b2 !>!b!>!b-!<)! | bfgd f !>!g2 !>!B- | Bc!>!^cB =c !>!d2 B | %12
 !>!dB !>!c2 !>!B2 z!mf! !>!b- | b2 !>!b2 !>!b2 !>!b!>!b- | bf!>!gd f !>!g2 !>!B- | %15
 Bc!>!^cB =c !>!d2 B |1 !>!dB !>!c2 !>!B2 z2 :|2 !>!dB !>!c2 !>!B2 z2 |:"^A" c2 A2 F2 A2!f! | %19
 c2 A2 F2 A2 | B2 B2 F2 B2 | B2 B2 B2 =B2 | c2 A2 F2 A2 | c2 A2 c2 ^c2 | d2 B2 F2 B2 | %25
 B2 B2 B2 =B2 | c2 A2 F2 A2 | c2 A2 F2 A2 | B2 B2 F2 B2 | B2 B2 A2 _A2 | G2 G2 =B2 B2 | %31
 c2 c2 c2 c2 | G2 G2 F2 A2 |1 B2 B2 B2 =B2 :|2 B2 d2 d2 F2 ||"^B" z B!>!fB d !>!f2 A | %36
 !>!fAc!>!f- f4 | z B!>!fB d !>!f2 A | !>!fAc!>!f- f2 z !>!f | z B^c!>!^f z !>!=f z !>!f | %40
 z B^c!>!^f z !>!=f z2 | z4 z B^cb | z4 z!p!!p!!p! b^c'b' | %43
!mf!!mf! !>!b2!<(!!<(! !>!b2 !>!b2 !>!b!>!b-!<)!!<)! | bfgd f !>!g2 !>!B- | Bc!>!^cB =c !>!d2 B | %46
 !>!dB !>!c2 !>!B2 z!mf!!mf! !>!b- | b2 !>!b2 !>!b2 !>!b!>!b- | bf!>!gd f !>!g2 !>!B- | %49
 Bc!>!^cB =c !>!d2 B | !>!dB !>!c2 !>!B2!f! !>!b2 |:[K:Eb]"^C" !>!b3 !>!b2 !>!f c2 | %52
 !>!b3 !>!b2 !>!fc!>!f | Bece gBeg | ceg B2 gcg | !>!b3 !>!b2 !>!f c2 | !>!b3 !>!b2 !>!fc!>!f | %57
 Bece gBeg | ceg B2 g=Bg | !>!c'3 !>!c'2 !>!g d2 | !>!c'3 !>!c'2 !>!gd!>!g | z f!>!c'f a !>!d'2 f | %62
 !>!c'fa !>!d'2 f !>!c'2 | !>!e'2 !>!e'2 !>!d'2 !>!c'2 | !>!gef !>!a2 c !>!g2 | %65
 !>!gef !>!g2 d!>!f!>!e- |1 e !>!b2 g !>!bg!>!bg :|2 eegb !>!e'2 z2 |: %68
[K:Bb]!ff! !>!b2 !>!g2 !>!b2 !>!g2 | !>!b2 !>!c' !>!d'2 c'bg | f g2 !>!d- d4 | z f!>!gd f !>!g2 d | %72
 !>!f2 g!>!c- c4 | z e!>!gc e !>!g2 !>!d- | df!>!gd f !>!g2 !>!d- | df!>!gd f !>!g2 f | %76
 !>!b2 !>!g2 !>!b2 !>!g2 | !>!b2 !>!c' !>!d'2 c'bg | b2 g2 f b2 !>!d- | df!>!gd f !>!g2 !>!B- | %80
 Bc !>!B2 !>!B2 !>!c!>!B- | Bc!>!dB c !>!d2 !>!B- | Bc!>!dB z !>!c2 F |1 %83
 !>!B2 !>!f2 !>!f2 !>!f2 :|2 !>!B2 !>!f2 !>!b2 z2 |] %85
V:2
[K:C]!f! z2 |: z C!>!G,C E !>!G,2 B, | !>!G,B,D!>!G,- G,4 | z C!>!G,C E !>!G,2 B, | %4
 !>!G,B,D!>!G,- G,2 z G, | z C^D!>!^G, z !>!=G, z !>!G, | z C^D!>!^G, z !>!=G, z2 | z C^Dc z4 | %8
 z!p! c^dc' z4 |!mf! ^d2!<(! d2 d2 d2!<)! | e2 e2 e2 e2 | ^d2 d2 e2 e2 | e2 f2 e2 z!mf!!mf! !>!c- | %13
 c2 !>!c2 !>!c2 !>!c!>!c- | cg!>!ce g !>!c2 !>!^G | ^G,D!>!A,C D !>!=G,2 C |1 %16
 !>!G,C !>!G,2 !>!G,2 z2 :|2 !>!Gc !>!G2 !>!G2 z2 |: z!f! .B!^!g.B .d ^f2 .B | %19
 !^!f.B.d e2 .G!^!d.G | z .e!^!c'.e .g a2 .e | !^!c'.e.g a2 .e a2 | z .g!^!b.d .f a2 .g | %23
 !^!b.d.f a2 .f a2 | z .e!^!c'.e .g a2 .e | !^!c'.e.g a2 .e a2 | z .B!^!g.B .d ^f2 .B | %27
 !^!f.B.d e2 .G!^!d.G | z .e!^!c'.e .g a2 .e | c'2 c'2 b2 _b2 | z .A.^c.e .a.e.c.A | %31
 z .A.d.f a2 f2 | !>!e2 z !^!e z !>!d2 .G |1 !>!c2 !>!g2 !>!g2 !>!g2 :|2 z .c.e.g c'2 z2 || %35
 C2 G2 G2 ^C2 | D2 G2 G2 G,2 | C2 G2 G2 ^C2 | D2 G2 G2 G,2 | ^G,4 =G,2 G,2 | ^G,4 =G,2 z2 | %41
!p! z C^Dc!p! z4 | z!p! c^dc' z4 |!mf!!mf!!mf! c2!<(!!<(! c2 c2 c2!<)!!<)! | e2 e2 e2 e2 | %45
 ^d2 d2 e2 e2 | e2 f2 e2 z!mf!!mf! z |!mf!!mf!!mf! A2 A2 A2 A2 | c2 c2 c2 c2 | C2 C2 C2 C2 | %50
 C2 B,2 E2!f! z2 |:[K:F]!f! c2 e2 e2 G2 | A2 e2 G2 E2 | F2 f2 c2 f2 | A2 f2 F2 ^F2 | G2 e2 B2 e2 | %56
 A2 e2 G2 E2 | F2 f2 c2 f2 | A2 f2 F2 E2 | D2 ^f2 ^F2 f2 | A2 ^f2 d2 f2 | G2 g2 B2 g2 | %62
 G2 g2 B2 g2 | =B d2 f ^gfdB | c2 f2 d2 d2 | d2 d2 e2 e2 |1 f2 f2 f2 ^F2 :|2 f2 c2 F2!ff! e2 |: %68
[K:C]!ff! !>!C2 !>!C2 !>!C2 !>!C2 | !>!A2 !>!A !>!A2 dcA | G A2 !>!C- C4 | z G!>!CE G !>!C2 E | %72
 !>!B,2 A!>!B,- B,4 | z F!>!B,D F !>!B,2 !>!C- | CG!>!CE G !>!C2 !>!C- | CG!>!CE G !>!C2 G | %76
 !>!C2 !>!C2 !>!C2 !>!C2 | !>!A2 !>!A !>!A2 dcA | c2 A2 G c2 !>!C- | CG!>!CE G !>!C2 !>!A,- | %80
 A,D !>!A,2 !>!^G,2 !>!G,!>!=G,- | G,D!>!G,C D !>!G,2 !>!^F,- | F,D!>!^F,C z !>!=F,2 G, |1 %83
 !>!E,2 !>!G,2 !>!G,2 !>!G,2 :|2 !>!E,2 !>!B,2 !>!C2 z2 |] %85
V:3
[K:C]!f! G,2 |: C2 E2 E2 ^C2 | D2 F2 F2 G,2 | C2 E2 E2 ^C2 | D2 F2 F2 G,2 | ^G,4 =G,2 G,2 | %6
 ^G,4 =G,2 z2 | C2 z2!p! c2 z2 | c2 z2!p! c'2 z2 |!mf! ^F2!<(! F2 F2 F2!<)! | G2 G2 G2 G2 | %11
 ^G2 G2 =G2 G2 | G2 G2 c2 z!mf! !>!C- |!mf! C2 !>!C2 !>!C2 !>!C!>!C | E2 E2 E2 E2 | ^D2 D2 E2 E2 |1 %16
 E2 F2 E2!f! G,2 :|2 E2 F2 E2!f! ^C2 |: D2 F2 G,2 F2 | D2 F2 G,2 B,2 | C2 E2 G,2 E2 | %21
 C2 E2 C2 ^C2 | D2 F2 G,2 F2 | D2 F2 D2 ^D2 | E2 E2 G,2 E2 | C2 E2 C2 ^C2 | D2 F2 G,2 F2 | %27
 D2 F2 G,2 B,2 | C2 E2 G,2 E2 | C2 C2 B,2 _B,2 | A,2 A,2 ^C2 C2 | D2 F2 F2 F2 | D2 D2 G,2 B,2 |1 %33
 C2 E2 E2 ^C2 :|2 C2 G2 G2 G,2 || C2 C2 C2 ^C2 | D2 B,2 B,2 G,2 | C2 C2 C2 ^C2 | D2 B,2 B,2 G,2 | %39
 ^G,4 =G,2 G,2 | ^G,4 =G,2 z2 | C2 z2!p!!p! c2 z2 | c2 z2!p! c'2 z2 |!mf! ^F2!<(! F2 F2 F2!<)! | %44
 G2 G2 G2 G2 | ^G2 G2 =G2 G2 | G2 G2 G2 z2 |!mf!!mf!!mf! ^F2 F2 F2 F2 | G2 G2 G2 G2 | %49
 ^G2 G2 =G2 G2 | G2 G2 c2 z2 |:[K:F]!f! G,2 B2 B,2 B2 | A,2 B2 G,2 E,2 | F,2 A2 C2 A2 | %54
 A,2 A2 F,2 ^F,2 | G,2 B2 B,2 B2 | A,2 B2 G,2 E,2 | F,2 A2 C2 A2 | A,2 A2 F2 E2 | D2 c2 ^F,2 c2 | %60
 A,2 c2 D2 c2 | G,2 B2 B,2 B2 | G,2 B2 B,2 B2 | =B, D2 F ^GFDB, | C2 A2 D2 ^F2 | F2 F2 E2 E2 |1 %66
 F2 A2 A2 ^F,2 :|2 F2 C2 F,2!ff! E2 |:[K:C] F2 A2 A2 E2 | F2 A2 D2 ^D2 | E2 G2 G2 G,2 | %71
 C2 E2 G,2 ^C2 | D2 F2 G,2 ^C2 | D2 F2 G,2 B,2 | C2 E2 G,2 E2 | C2 E2 D2 E2 | F2 A2 A2 E2 | %77
 F2 A2 D2 ^D2 | E2 G2 G2 G,2 | C2 E2 G,2 E2 | F,2 F,2 D,2 ^F,2 | G,2 E2 G,2 ^G,2 | %82
 A,2 A,2 B,2 B,2 |1 C2 E2 D2 E2 :|2 C2 G,2 C,2 z2 |] %85

